images/placeholder-2by3.svg

<svg xmlns="http://www.w3.org/2000/svg" width="800" height="1200" viewBox="0 0 800 1200"><title>placeholder</title><path fill="#e2e2e2" d="M2 2h796v1196h-796z"/><path d="M796 4v1192h-792v-1192h792m4-4h-800v1200h800v-1200z" fill="#666"/><path stroke="#666" stroke-miterlimit="10" stroke-width="4" fill="none" d="M0 1200l800-1200M0 0l800 1200"/></svg>

<svg xmlns="http://www.w3.org/2000/svg" width="800" height="1200" viewBox="0 0 800 1200"><title>placeholder</title><rect x="2" y="2" width="796" height="1196" fill="#e2e2e2"/><path d="M796,4V1196H4V4H796m4-4H0V1200H800V0h0Z" fill="#666"/><line y1="1200" x2="800" fill="none" stroke="#666" stroke-miterlimit="10" stroke-width="4"/><line x2="800" y2="1200" fill="none" stroke="#666" stroke-miterlimit="10" stroke-width="4"/></svg>
